X:1
T:Title
%%score { ( 1 5 6 ) | ( 2 3 4 ) }
L:1/8
Q:1/4=92
M:2/4
K:G
V:1 treble nm="Grand Piano"
V:5 treble 
V:6 treble 
V:2 bass 
V:3 bass 
V:4 bass 
V:1
 [B,D]>[B,D] [DB]>[DG] | E>E c>A | F>F d>c | A>d [DB]2 | [B,D]>[B,D] [DB]>[DG] | E>E c>A | %6
w: Wm.~A.~May * * *||||||
 F>F d>c | A>B [B,G]2 | (3[B,G]AB [Ec]>[Ec] | [Ec]>[Ec] [Ec]>[Ec] | (3[Ge]dc (3:2:2[DB]2 [DGB] | %11
w: |||||
 (3[Bd]cB [DFA]2 | (3[F,D][^CE][K:treble][=CF] (3:2:2[B,G]2 G | %13
w: ||
[M:17/32] z/4 z/4 z/4 z/4 z/4 z/4 z/ [Ec]/4-[Ec]/4-[Ec]/-<[Ec]/ z/4 z/ | %14
w: |
[M:2/4] (5:4:5[Ec]2 e/ [Dd]/-[Dd]3/2[DB]/[Q:1/4=91][Q:1/4=89][Q:1/4=88][Q:1/4=87][Q:1/4=85][Q:1/4=84][Q:1/4=83][Q:1/4=81][Q:1/4=80][Q:1/4=78][Q:1/4=77][Q:1/4=76][Q:1/4=74][Q:1/4=73][Q:1/4=72][Q:1/4=70] | %15
w: |
[M:5/8] z z/ [DB]/-[DB]/4 z/4 z/ z2 |] %16
w: |
V:2
 [G,,G,]>[G,,G,] [G,,G,]>[B,,G,] | [C,G,C]>[C,G,C] [E,G,C]>[D,F,C] | %2
 [D,A,]>[D,A,D] [D,F,D]>[D,F,D] | [D,F,D]>[D,F,D] [G,,G,]2 | [G,,G,]>[G,,G,] [G,,G,]>[B,,G,] | %5
 [C,G,C]>[C,G,C] [E,G,C]>[D,F,C] | [D,A,]>[D,A,D] [D,F,D]>[D,F,D] | [D,F,C]>[D,F,D] [G,,G,]2 | %8
 (3z CD [C,G,]>[C,G,] | [C,G,]>[C,G,] [C,G,]>[C,G,] | G,2[K:treble][K:bass] z2 | %11
 (3z[K:treble] AG[K:bass] D,2 | (3z G,A, (3:2:2z2 B, | %13
[M:17/32] (7:8:12G,,/-G,,/32-[G,,C]/-[G,,-C]/32[G,,D]3/4-[G,,D]3/64 z/4 z/64 z z/16 [C,G,]/- [C,G,]/32 | %14
[M:2/4] (5:4:5[C,G,]2 [C,G,C]/ [B,,G,]/-[B,,G,]3/2[G,,G,]/ | %15
[M:5/8] z z/ [D,F,]/-[D,F,]/4 z/4 z/ z2 |] %16
V:3
 x4 | x4 | x4 | x4 | x4 | x4 | x4 | x4 | G,2 z2 | x4 | %10
 (3z[K:treble] FE[K:bass] (3:2:2[G,,G,]2 G,, | G,,2[K:treble][K:bass] z2 | D,2 G,2 | %13
[M:17/32] G,/4-G,/4-G,/4-G,/4-G,/-<G,/[C,G,]/4-[C,G,]/4-[C,G,]/-<[C,G,]/ z/4 z/ |[M:2/4] x4 | %15
[M:5/8] [D,F,]2 [G,,G,]3 |] %16
V:4
 x4 | x4 | x4 | x4 | x4 | x4 | x4 | x4 | G,,2 z2 | x4 | C,2[K:treble][K:bass] z2 | %11
 x2/3[K:treble] x4/3[K:bass] x2 | x4 |[M:17/32] x4 |[M:2/4] x4 |[M:5/8] x5 |] %16
V:5
 x4 | x4 | x4 | x4 | x4 | x4 | x4 | x4 | x4 | x4 | x4 | D2 z2 | x4/3[K:treble] x8/3 | %13
[M:17/32] (7:8:12[B,G]/-[B,G]/32A/-A/32B3/4-B3/64 z/4 z/64 z z/16 [Ec]/- [Ec]/32 |[M:2/4] x4 | %15
[M:5/8] [CA]3/2-[CA]/4 z/4 z z2 |] %16
V:6
 x4 | x4 | x4 | x4 | x4 | x4 | x4 | x4 | x4 | x4 | x4 | x4 | x4/3[K:treble] x8/3 |[M:17/32] x4 | %14
[M:2/4] x4 |[M:5/8] z2 [B,G]3 |] %16

